src/lib/packages/icons/src/assets/line/chat-settings.svg

<svg width="24" height="24" viewBox="0 0 24 24" fill="none" xmlns="http://www.w3.org/2000/svg">
<path d="M4.0049 21.749C3.5479 21.749 3.10408 21.569 2.76809 21.233C2.29408 20.76 2.13108 20.073 2.34108 19.441L3.1819 16.94C3.2799 16.633 3.27102 16.325 3.15602 16.082C2.56402 14.809 2.25392 13.399 2.25392 11.999C2.25392 6.62402 6.62697 2.25 12.002 2.25C17.378 2.25 21.751 6.62302 21.751 11.999C21.751 17.375 17.378 21.748 12.002 21.748C10.603 21.748 9.19302 21.437 7.92702 20.848C7.67802 20.729 7.36902 20.721 7.05202 20.822L4.56301 21.658C4.37801 21.719 4.1899 21.749 4.0049 21.749ZM12.001 3.75C7.453 3.75 3.75295 7.45002 3.75295 11.999C3.75295 13.182 4.01596 14.373 4.51296 15.443C4.78896 16.024 4.82493 16.723 4.60793 17.406L3.76393 19.917C3.72193 20.042 3.7859 20.131 3.8279 20.173C3.8699 20.215 3.95998 20.279 4.08498 20.237L6.58303 19.398C7.27703 19.177 7.97796 19.211 8.56496 19.492C9.62696 19.986 10.818 20.249 12.001 20.249C16.55 20.249 20.25 16.549 20.25 12C20.25 7.451 16.55 3.75 12.001 3.75ZM12.7351 16.75H11.208C10.71 16.75 10.305 16.347 10.305 15.851C10.305 15.647 10.1899 15.455 10.0029 15.351C9.80395 15.239 9.55813 15.239 9.36013 15.35C8.92713 15.591 8.39191 15.448 8.13991 15.026L7.37502 13.744C7.25302 13.538 7.21807 13.288 7.27907 13.057C7.34107 12.825 7.49705 12.624 7.70705 12.505C7.89705 12.398 8.01396 12.205 8.01296 12.001C8.01296 11.796 7.896 11.604 7.709 11.499C7.496 11.379 7.34107 11.178 7.27907 10.946C7.21707 10.715 7.253 10.464 7.376 10.259L8.13991 8.97601C8.38891 8.55901 8.93713 8.41302 9.36013 8.65302C9.55813 8.76402 9.80395 8.764 10.0029 8.651C10.1899 8.546 10.3059 8.354 10.3059 8.151C10.3059 7.655 10.711 7.25201 11.21 7.25201H12.7339C13.2329 7.25201 13.638 7.656 13.638 8.151C13.638 8.354 13.7539 8.546 13.9409 8.651C14.1389 8.763 14.386 8.76398 14.585 8.65198L14.719 8.578C15.073 8.379 15.521 8.502 15.729 8.849L16.645 10.387C16.749 10.561 16.7771 10.769 16.7251 10.964C16.6731 11.159 16.5439 11.326 16.3689 11.424L16.2361 11.499C16.0481 11.605 15.9319 11.798 15.9319 12.002C15.9319 12.207 16.0481 12.399 16.2361 12.505C16.4501 12.625 16.6011 12.82 16.6641 13.053C16.7271 13.286 16.695 13.529 16.573 13.738L15.804 15.028C15.554 15.445 15.003 15.589 14.584 15.351C14.386 15.24 14.1399 15.24 13.9409 15.353C13.7539 15.458 13.638 15.65 13.638 15.853C13.639 16.346 13.2331 16.75 12.7351 16.75ZM11.7151 15.25H12.23C12.384 14.748 12.7301 14.312 13.2061 14.044C13.6841 13.774 14.251 13.702 14.772 13.827L15.0091 13.429C14.6441 13.047 14.4319 12.538 14.4319 12.002C14.4309 11.465 14.6431 10.954 15.0091 10.571L14.773 10.173C14.249 10.298 13.6831 10.227 13.2061 9.95599C12.7301 9.68799 12.385 9.252 12.23 8.75H11.7151C11.5611 9.252 11.215 9.68799 10.739 9.95599C10.261 10.226 9.69811 10.297 9.17311 10.173L8.93605 10.571C9.30105 10.952 9.51293 11.46 9.51393 11.995C9.51593 12.534 9.30405 13.046 8.93605 13.43L9.17311 13.827C9.69711 13.701 10.261 13.774 10.739 14.044C11.215 14.312 11.5611 14.748 11.7151 15.25ZM15.315 14.039C15.316 14.04 15.3171 14.04 15.3191 14.041C15.3171 14.04 15.316 14.04 15.315 14.039ZM8.62502 9.95898C8.62702 9.95998 8.62792 9.96 8.62892 9.961C8.62792 9.96 8.62702 9.95898 8.62502 9.95898ZM13.02 12C13.02 11.448 12.573 11 12.02 11H12.01C11.458 11 11.0149 11.448 11.0149 12C11.0149 12.552 11.468 13 12.02 13C12.572 13 13.02 12.552 13.02 12Z" fill="currentColor"/>
</svg>

<svg xmlns="http://www.w3.org/2000/svg" width="24" height="24" fill="none"><path fill="currentColor" d="M4.005 21.749c-.457 0-.9-.18-1.237-.516a1.743 1.743 0 0 1-.427-1.792l.84-2.501c.099-.307.09-.615-.025-.858a9.74 9.74 0 0 1-.902-4.083c0-5.375 4.373-9.749 9.748-9.749 5.376 0 9.749 4.373 9.749 9.749s-4.373 9.749-9.749 9.749a9.727 9.727 0 0 1-4.075-.9c-.249-.119-.558-.127-.875-.026l-2.489.836a1.781 1.781 0 0 1-.558.091ZM12 3.75c-4.548 0-8.248 3.7-8.248 8.249a8.23 8.23 0 0 0 .76 3.444c.276.581.312 1.28.095 1.963l-.844 2.511a.242.242 0 0 0 .064.256.244.244 0 0 0 .257.064l2.498-.839c.694-.221 1.395-.187 1.982.094a8.21 8.21 0 0 0 3.436.757c4.549 0 8.249-3.7 8.249-8.249S16.549 3.75 12 3.75Zm.734 13h-1.527a.902.902 0 0 1-.903-.899.577.577 0 0 0-.302-.5.66.66 0 0 0-.643-.001.902.902 0 0 1-1.22-.324l-.765-1.282a.903.903 0 0 1-.096-.687.908.908 0 0 1 .428-.552c.19-.107.307-.3.306-.504a.582.582 0 0 0-.304-.502.894.894 0 0 1-.333-1.24l.764-1.283a.909.909 0 0 1 1.22-.323.657.657 0 0 0 .643-.002.58.58 0 0 0 .303-.5c0-.496.405-.899.904-.899h1.524c.499 0 .904.404.904.899a.58.58 0 0 0 .303.5.66.66 0 0 0 .644.001l.134-.074a.75.75 0 0 1 1.01.271l.916 1.538a.748.748 0 0 1-.276 1.037l-.133.075a.584.584 0 0 0-.304.503c0 .205.116.397.304.503a.89.89 0 0 1 .428.548.888.888 0 0 1-.091.685l-.769 1.29a.912.912 0 0 1-1.22.323.657.657 0 0 0-.643.002.58.58 0 0 0-.303.5.901.901 0 0 1-.903.897Zm-1.02-1.5h.515c.154-.502.5-.938.976-1.206a2.172 2.172 0 0 1 1.566-.217l.237-.398a2.068 2.068 0 0 1-.577-1.427 2.069 2.069 0 0 1 .577-1.431l-.236-.398a2.167 2.167 0 0 1-1.567-.217 2.097 2.097 0 0 1-.976-1.206h-.515c-.154.502-.5.938-.976 1.206-.478.27-1.04.341-1.566.217l-.237.398c.365.381.577.889.578 1.424a2.064 2.064 0 0 1-.578 1.435l.237.397a2.165 2.165 0 0 1 1.566.217c.476.268.822.704.976 1.206Zm3.6-1.211.004.002-.004-.002Zm-6.69-4.08.004.002-.004-.002ZM13.02 12a1 1 0 0 0-1-1h-.01a.996.996 0 0 0-.995 1c0 .552.453 1 1.005 1a1 1 0 0 0 1-1Z"/></svg>
